!!!COM: Robert Schumann
!!!CNT: Deutscher
!!!TXO: Deutsche 
!!!OTL: Fru2hlingsnacht
!!!OPR: Liederkreis
!!!OPS: Opus 39
!!!ONM: No. 12
!!!LYR: Eichendorff
!!!ENC: Brian Bice
!!!YOR: Sa2mtliche Lieder, vol. 1, C.F. Peters
!!!ODT: 1840/
!!NB: Vocal melody and text only encoded.
**kern	**silbe
*clefG2	*
*k[f#c#g#d#a#e#]	*
*M2/4	*
=1	=1
4r	.
8r	.
{16f#	{U2-
16en	-berm
=2	=2
8.d#	Gar-
16d#	-ten
(16d#	durch
16f##	|
16a#)	|
16cc#	die
=3	=3
8cc#	Lu2f-
8b}	-te}
4r	.
=4	=4
{8.e#	{ho2rt'
16e#	ich
16e#	Wan-
16g##	-der-
16b#	-vo2-
16dd#	-gel
=5	=5
4cc#}	zieh'n,}
8r	.
{16dd#	{das
16a#	be-
=6	=6
8bn	-deu-
8bn	-tet
8.a#	Fru2h-
16e#	-lings-
=7	=7
8f#	-du2f-
8f#}	-te,}
4r	.
=8	=8
{8.a#	{un-
16d#	-ten
16d#	fa2ngt's
(16d#	schon
16e#	an
16f#)	zu
=9	=9
4e#}	blu2h'n.}
4r	.
=10	=10
{8.a#	{Jauch-
16a#	-zen
16a#	mo2cht'
16a#	ich,
16a#	mo2ch-
16a#	-te
=11	=11
8b	wei-
8b}	-nen,}
8r	.
{16b	{ist
16b	mir's
=12	=12
8.a#	doch,
16a#	als
(16b	ko2nnt's
16a#	|
16g#)	|
16f#	nicht
=13	=13
(f#q	sein!
4b)}	|}
8r	.
{16b	{Al-
16b	-te
=14	=14
(16b#	Wun-
16cc#)	|
8cc#	-der
8.cc##	wie-
16cc##	-der
=15	=15
8cc#	schei-
8dd#}	-nen}
8r	.
{16dd#	{mit
16dd#	dem
=16	=16
[4dd#	Mon-
16dd#]	|
16dd#	-des-
16.ff#	-glanz
32ee#	her-
=17	=17
4cc#}	-ein.}
4r	.
=18	=18
4r	.
8r	.
{16f#	{Und
16en	der
=19	=19
8.d#	mond,
16d#	die
(16d#	Ster-
8cc#)	|
16cc#	-ne
=20	=20
8cc#	sa-
8b}	-gen's,}
8r	.
{16g#	{und
16f#	im
=21	=21
8.e#	Trau-
16e#	-me
(16e#	rauscht's
16g##	|
16b#)	|
16dd#	der
=22	=22
4cc#}	Hain,}
8r	.
{16dd#	{und
16a#	die
=23	=23
8.bn	Nach-
16bn	-ti-
(16bn	-gal-
8cc#)	|
16g#	-len
=24	=24
8a#	schla-
4a#}	-gen's:}
{16ee#	{"Sie
16dd#	ist
=25	=25
[4cc#	dei-
16cc#]	|
16cc##	-ne,
16dd#	sie
16cc#	ist
=26	=26
4f#}	dein!"}
4r	.
*-	*-
